X: 18932
T: Indian Summer
R: jig
M: 6/8
K: Dmajor
A|:ddd dAF|DFA dAF|GGG eGG|gGG eGG|
ddd dAF|DFA dAF|GGG edc|1 ddd d2 A:|2 ddd dee||
|:eff fed|eaa agf|eAA GAA|FAA EAA|
eff fed|eaa agf|eaa agf|edc dee:|
|:eff fdB|FBd fed|eAA GAA|FAA EAA|
eff fdB|FBd fed|eee cBA|ABB BAA:|
|:ABB FBB|GBB FBB|BBB dBB|eBB fBB|
ABB FBB|GBB FBB|eee cBA|1 ABB BAA:|2 ABB B2||

